_includes/icons/ios-firework.svg

<svg fill="#666" height="50" viewBox="0 0 50 50" width="50" xmlns="http://www.w3.org/2000/svg"><path d="m48.277344 1.726563-23.308594 4.660156 1.324219 1.320312 1.5 1.5-20.921875 20.921875c-1.171875 1.171875-1.171875 3.070313 0 4.242188l3.460937 3.460937c-1.144531.742188-1.925781 1.445313-2.449218 2.136719-.652344.855469-.914063 1.664063-1.148438 2.300781-.238281.636719-.429687 1.109375-.976562 1.699219-.542969.585938-1.476563 1.289063-3.195313 2.132813-.5.242187-.703125.839843-.460937 1.335937.242187.5.839843.703125 1.335937.460938 1.859375-.910157 3.015625-1.734375 3.789063-2.570313.777343-.839844 1.128906-1.679687 1.382812-2.363281.25-.683594.417969-1.199219.863281-1.785156.402344-.53125 1.089844-1.152344 2.3125-1.894532l3.84375 3.84375c.585938.585938 1.351563.878907 2.121094.878907.765625 0 1.535156-.292969 2.121094-.878907l20.921875-20.921875 2.820312 2.824219zm-2.550781 2.546875-3.339844 16.699218-13.359375-13.359375zm-16.519532 6.347656 5.050782 5.050781-7.554688-2.546875zm-4.082031 4.082031 12.316406 4.15625 1.9375 1.933594-2.460937 2.460937-15.214844-5.128906zm-5 5 15.214844 5.128906-3.421875 3.421875-15.214844-5.128906zm-5 5 15.214844 5.128906-3.167969 3.167969-15.21875-5.125zm-4.75 4.75 15.21875 5.125-3.421875 3.421875-13.332031-4.488281-.554688-.554688c-.253906-.253906-.292968-.550781-.292968-.707031s.039062-.453125.292968-.707031zm1.644531 7.238281 8.574219 2.886719-2.136719 2.136719c-.164062.164062-.34375.238281-.492187.269531-.085938.019531-.160156.023438-.214844.023438-.15625 0-.453125-.039063-.707031-.292969z"/></svg>

<svg xmlns="http://www.w3.org/2000/svg" viewBox="0 0 50 50" width="50" height="50" fill="#666"><path d="M 48.277344 1.726563 L 24.96875 6.386719 L 26.292969 7.707031 L 27.792969 9.207031 L 6.871094 30.128906 C 5.699219 31.300781 5.699219 33.199219 6.871094 34.371094 L 10.332031 37.832031 C 9.1875 38.574219 8.40625 39.277344 7.882813 39.96875 C 7.230469 40.824219 6.96875 41.632813 6.734375 42.269531 C 6.496094 42.90625 6.304688 43.378906 5.757813 43.96875 C 5.214844 44.554688 4.28125 45.257813 2.5625 46.101563 C 2.0625 46.34375 1.859375 46.941406 2.101563 47.4375 C 2.34375 47.9375 2.941406 48.140625 3.4375 47.898438 C 5.296875 46.988281 6.453125 46.164063 7.226563 45.328125 C 8.003906 44.488281 8.355469 43.648438 8.609375 42.964844 C 8.859375 42.28125 9.027344 41.765625 9.472656 41.179688 C 9.875 40.648438 10.5625 40.027344 11.785156 39.285156 L 15.628906 43.128906 C 16.214844 43.714844 16.980469 44.007813 17.75 44.007813 C 18.515625 44.007813 19.285156 43.714844 19.871094 43.128906 L 40.792969 22.207031 L 43.613281 25.03125 Z M 45.726563 4.273438 L 42.386719 20.972656 L 29.027344 7.613281 Z M 29.207031 10.621094 L 34.257813 15.671875 L 26.703125 13.125 Z M 25.125 14.703125 L 37.441406 18.859375 L 39.378906 20.792969 L 36.917969 23.253906 L 21.703125 18.125 Z M 20.125 19.703125 L 35.339844 24.832031 L 31.917969 28.253906 L 16.703125 23.125 Z M 15.125 24.703125 L 30.339844 29.832031 L 27.171875 33 L 11.953125 27.875 Z M 10.375 29.453125 L 25.59375 34.578125 L 22.171875 38 L 8.839844 33.511719 L 8.285156 32.957031 C 8.03125 32.703125 7.992188 32.40625 7.992188 32.25 C 7.992188 32.09375 8.03125 31.796875 8.285156 31.542969 Z M 12.019531 36.691406 L 20.59375 39.578125 L 18.457031 41.714844 C 18.292969 41.878906 18.113281 41.953125 17.964844 41.984375 C 17.878906 42.003906 17.804688 42.007813 17.75 42.007813 C 17.59375 42.007813 17.296875 41.96875 17.042969 41.714844 Z"/></svg>
